X:1
T:Qui piu lucente
T:Qui piu lucente
T:Raffaello Rontani
T:Source : Le varie Musiche a uno e due voci---Roma---G.B.Robletti---1622. Editor : André Vierendeels (03/05/16).
T:©
T:©
T:©
C:Raffaello Rontani
Z:©
%%score [ 1 2 ] 3
L:1/8
Q:1/4=120
M:4/4
K:C
V:1 treble nm="Soprano" snm="S"
V:2 treble-8 nm="Tenor" snm="T"
V:3 bass nm="BC" snm="BC"
V:1
 G6 BA | A3 G GFFE | E4 E4 | z8 | z8 | z8 | z8 | z8 | z2 G4 G2 | A2 AA B4- | B2 A2 A2 G2 | A4 G4 | %12
w: Qui piu lu-|cen- te'an- cor la nott' om-|bro- sa,||||||i bei|cam- pi del Ciel|_ di stel- le'in|fio- ra,|
 E6 EE | GFFF E4 | G3 G F2 F2 | E4 D3 A | cc B2 A2 c2- | c2 B2 A2 G2 | A4 G4 | z8 | z8 | %21
w: e qui spie-|gan- * * * do'il|suo bel lu- me'a-|dor- no, la|nott' e bel- la piu|_ ch'al- trom' il|gior- no,|||
 z4 z2 z D | FF E/D/E/F/ G2 F2 | z FGG F/E/F/G/ A2 | G4 ^F2 F2 | G2 G2 A4- | A4 G4- | G8 |] %28
w: la|nott' e bel- * * * * la,|la nott' e bel- * * * *|la piu ch'al-|tro- v'il gior-|* no.|_|
V:2
 z8 | z8 | c6 ed | d3 c c_BBA | A4 A2 c2- | c2 c2 d2 dd | e6 d2 | d2 c2 d4 | c8 | z8 | z8 | z8 | %12
w: ||Qui piu lu-|cen- te'an- cor la nott' om-|bro- sa, i|_ bei cam- pi del|Ciel di|stel- le'i fio-|ra,||||
 c6 cc | eddd c4 | e3 e e2 d2 | d2 ^c2 d4 | z8 | z8 | z4 z2 z d | ff e2 d2 f2- | f2 e2 d2 c2 | %21
w: e qui spie-|gan- * * * do'il|suo bel lu- me'a-|dor- * no,|||la|nott' e bel- la piu|_ ch'al- tro- v'il|
 d4 cA_BB | A/G/A/B/ c2 B2 z A | cc B/A/B/c/ d2 c2 | B2 ^c2 d4 | e4 d4- | d4 G4- | G8 |] %28
w: gior- no, la nott' e|bel- * * * * la, la|nott' e bel- * * * * la|piu ch'al- tro-|v'il gior-|* no.|_|
V:3
 G,,8 | G,,8 | C,8 | C,8 | F,,8 |"^7 6" F,2 E,2 D,4 | C,2 D,2 E,2 C,2 | F,2 A,2 G,4 | C,6 B,,2 | %9
"^5 6" A,,4 G,,2 A,,2 | B,,2 G,,2 C,2 E,2 | D,4 G,,4 | C,8 | C,8 | C,4 D,4 | A,,4 D,4 | %16
"^#" A,,2 E,2 A,,4 | B,,4 C,2 E,2 | D,4 G,,4 | D,2 A,,2 D,4 | E,4 F,2 A,2 | G,4 C,2 G,,2 | %22
"^b" D,2 C,2 G,,2 D,2 | A,,2 E,2 D,2 A,,2 | E,4 D,4 |"^7 6" E,4 D,4- | D,4 G,,4- | G,,8 |] %28

